src/img/icons/ico_m3.svg

<svg width="30" height="30" viewBox="0 0 30 30" fill="none" xmlns="http://www.w3.org/2000/svg">
<g id="Frame" clip-path="url(#clip0_91_9362)">
<path id="Vector" d="M24.375 4.6875H5.625C5.10723 4.6875 4.6875 5.10723 4.6875 5.625V24.375C4.6875 24.8928 5.10723 25.3125 5.625 25.3125H24.375C24.8928 25.3125 25.3125 24.8928 25.3125 24.375V5.625C25.3125 5.10723 24.8928 4.6875 24.375 4.6875Z" stroke="#ED6E77" stroke-width="2" stroke-linecap="round" stroke-linejoin="round"/>
<path id="Vector_2" d="M25.3125 18.7484L20.3555 13.7914C20.2682 13.7028 20.1643 13.6325 20.0496 13.5845C19.9349 13.5364 19.8118 13.5117 19.6875 13.5117C19.5632 13.5117 19.4401 13.5364 19.3254 13.5845C19.2107 13.6325 19.1068 13.7028 19.0195 13.7914L13.793 19.018C13.7057 19.1065 13.6018 19.1769 13.4871 19.2249C13.3724 19.2729 13.2493 19.2976 13.125 19.2976C13.0007 19.2976 12.8776 19.2729 12.7629 19.2249C12.6482 19.1769 12.5443 19.1065 12.457 19.018L10.043 16.6039C9.95573 16.5153 9.85175 16.445 9.73708 16.397C9.6224 16.3489 9.49932 16.3242 9.375 16.3242C9.25068 16.3242 9.1276 16.3489 9.01292 16.397C8.89825 16.445 8.79427 16.5153 8.70703 16.6039L4.6875 20.6234" stroke="#ED6E77" stroke-width="2" stroke-linecap="round" stroke-linejoin="round"/>
<path id="Vector_3" d="M11.7188 12.1875C12.4954 12.1875 13.125 11.5579 13.125 10.7812C13.125 10.0046 12.4954 9.375 11.7188 9.375C10.9421 9.375 10.3125 10.0046 10.3125 10.7812C10.3125 11.5579 10.9421 12.1875 11.7188 12.1875Z" fill="#ED6E77"/>
</g>
<defs>
<clipPath id="clip0_91_9362">
<rect width="30" height="30" fill="white"/>
</clipPath>
</defs>
</svg>

<svg xmlns="http://www.w3.org/2000/svg" width="30" height="30" fill="none">
  <g clip-path="url(#a)">
    <path stroke="#ED6E77" stroke-linecap="round" stroke-linejoin="round" stroke-width="2" d="M24.375 4.688H5.625a.937.937 0 0 0-.938.937v18.75c0 .518.42.938.938.938h18.75c.518 0 .938-.42.938-.938V5.625a.937.937 0 0 0-.938-.938Z"/>
    <path stroke="#ED6E77" stroke-linecap="round" stroke-linejoin="round" stroke-width="2" d="m25.313 18.748-4.957-4.957a.937.937 0 0 0-1.337 0l-5.226 5.227a.939.939 0 0 1-1.336 0l-2.414-2.414a.937.937 0 0 0-1.336 0l-4.02 4.02"/>
    <path fill="#ED6E77" d="M11.719 12.188a1.406 1.406 0 1 0 0-2.813 1.406 1.406 0 0 0 0 2.813Z"/>
  </g>
  <defs>
    <clipPath id="a">
      <path fill="#fff" d="M0 0h30v30H0z"/>
    </clipPath>
  </defs>
</svg>
